!!!OTL: Die Geburt im Walde Es gingen zwei Liebchen wohl durch den gruenen Wald;
!!!ARE: Europa, Mitteleuropa, Deutschland (BRD), Hessen
!!!YOR: 1, S. 72
!!    1907 aufgezeichnet
!!!SCT: Q0007G
!!!YEM: Copyright 1995, estate of Helmut Schaffrath.
**kern
*ICvox
*Ivox
*M3/4
*k[f#]
*G:
{4d
=1
4g
4g
4a
=2
4b
4b
4ee
=3
4.dd
8cc
8.b
16dd
=4
4a
4r}
{8.g
16b
=5
4dd
4dd
4ee
=6
8.dd
16b
4b
8.a
16b
=7
4cc
4cc
4dd
=8
8.cc
16b
4b}
{8.d
16d
=9
4.g
8a
4ee
=10
4.dd
8cc
8.b
16b
=11
4cc
4b
4a
=12
4g
4r}
{8.g
16b
=13
4dd
4dd
4ee
=14
8.dd
16cc
4cc
8.a
16b
=15
4cc
4cc
4dd
=16
8.cc
16b
4b}
{8.d
16d
=17
4.g
8a
4ee
=18
4.dd
8cc
8.b
16b
=19
4cc
4b
4a
=20
4g
4r}
==
!!!AGN: Ballade, Geburt, Tod, Moral
!! Melodievergleich zu Q0007E.
!!!ONB: ESAC (Essen Associative Code) Database: BALLADE
!!!AMT: simple triple
!!!AIN: vox
!!!EED: Helmut Schaffrath
!!!EEV: 1.0
*-
